resources/images/lightbulb/page.svg

<?xml version="1.0" encoding="UTF-8"?>
<svg xmlns="http://www.w3.org/2000/svg" width="21" height="21" viewBox="295.5 385.141 21 21">
	<path fill="#72777d" d="M312.257 385.14h-14.383v19.202c0 1.08.72 1.798 1.798 1.798h14.456v-19.273c-.002-1.15-.793-1.726-1.87-1.726zm-4.82 2.662h3.884v4.962h-3.88v-4.962zm-6.76 0h4.604v1.366h-4.6v-1.366zm0 3.595h4.604v1.366h-4.6v-1.366zm0 11.867v-1.366h10.644v1.366h-10.64zm10.644-3.452h-10.64v-1.366h10.644v1.366zm0-3.524h-10.64v-1.367h10.644v1.37z"/>
</svg>

<?xml version="1.0" encoding="utf-8"?>
<!-- Generator: Adobe Illustrator 15.0.0, SVG Export Plug-In . SVG Version: 6.00 Build 0)  -->
<!DOCTYPE svg PUBLIC "-//W3C//DTD SVG 1.1//EN" "http://www.w3.org/Graphics/SVG/1.1/DTD/svg11.dtd">
<svg version="1.1" id="Layer_1" xmlns="http://www.w3.org/2000/svg" xmlns:xlink="http://www.w3.org/1999/xlink" x="0px" y="0px"
	 width="21px" height="20.999px" viewBox="295.5 385.141 21 20.999" enable-background="new 295.5 385.141 21 20.999"
	 xml:space="preserve">
<path fill="#999999" d="M312.257,385.141h-14.383v19.201c0,1.079,0.719,1.798,1.798,1.798h14.456v-19.273
	C314.126,385.716,313.335,385.141,312.257,385.141z M307.438,387.802h3.883v4.962h-3.883V387.802z M300.678,387.802h4.603v1.366
	h-4.603C300.678,389.24,300.678,387.802,300.678,387.802z M300.678,391.397h4.603v1.366h-4.603V391.397z M300.678,403.264v-1.366
	h10.643v1.366H300.678z M311.321,399.812h-10.643v-1.366h10.643V399.812L311.321,399.812z M311.321,396.288h-10.643v-1.367h10.643
	V396.288L311.321,396.288z"/>
</svg>
